X:1
T:Title
%%score { ( 1 3 ) | ( 2 4 ) }
L:1/8
M:3/4
K:Ab
V:1 treble nm="Grand Piano"
V:3 treble 
V:2 bass 
V:4 bass 
V:1
 z2 z2[Q:1/4=100] [A,C][B,D] | [CE]3 [Ec] [DB][Ec] | [CA]2 [A,CE]2 CD | z2 C2 B2 | %4
 [CA]4 [A,C][B,D] | [CE]3 [Ec] [DB][Ec] | [CA]2 [CE]2 [CA][CA] | [=DA]4 F2 | B4 EE | %9
 B3 c [Fd][Fd] | [Fd]2 [Ec]2 [Ec][Ec] | [=Ec]3 [EG] [Ec][GB] | [GB]2 A2 AA | [FA]3 [FB] [FA][DF] | %14
 [DF]2 [CE]2 CD | z2 C2 B2 |[M:2/4] [CA]4 |[M:1/4] [CE][CE] |[M:3/4] [CA]3 [CA] [CG][CF] | %19
 [DG]2 G2 EE | B3 B AG | [DB]2 [CA]2 [CE][CE] | [Ec]3 [Ec] [_GB][Gc] | [Fe]2 [Fd]2 AF | %24
 z2 C2 B2[Q:1/4=98][Q:1/4=97][Q:1/4=95][Q:1/4=94][Q:1/4=92][Q:1/4=91][Q:1/4=89][Q:1/4=88][Q:1/4=86][Q:1/4=84][Q:1/4=83][Q:1/4=81][Q:1/4=80][Q:1/4=78][Q:1/4=77] | %25
[M:2/4] [CA]4 |] %26
V:2
 z2 z2 [A,,E,][A,,A,] | [A,,A,]3 [A,,A,] [A,,A,][A,,A,] | [A,,E,]2 A,,2 C,D, | z2 A,2 [E,G,D]2 | %4
 [A,,A,]4 [A,,E,][A,,A,] | [A,,A,]3 [A,,A,] [A,,A,][A,,A,] | [A,,E,]2 [A,,A,]2 [A,,A,][A,,A,] | %7
 [B,,F,]4 [F,A,=D]2 | [E,G,E]4 [E,G,D][E,G,D] | [E,G,D]3 [E,G,E] [E,G,][E,G,] | %10
 [A,,A,]2 [A,,A,]2 [A,,A,][A,,A,] | [C,G,]3 [C,C] [C,C][=E,C] | [F,C]2 [F,CF]2 [F,CF][F,CF] | %13
 [D,D]3 [D,D] [D,D][D,A,] | [A,,A,]2 [A,,A,]2 C,D, | z2 A,2 [E,G,D]2 |[M:2/4] [A,,A,]4 | %17
[M:1/4] [A,,A,][A,,A,] |[M:3/4] [A,,E,]3 [A,,E,] [A,,E,][A,,E,] | %19
 [B,,E,]2 [E,B,D]2 [E,G,D][E,G,D] | [E,G,D]3 [E,G,D] [E,A,C][E,B,D] | %21
 [A,,A,]2 [A,,A,]2 [A,,A,][A,,A,] | [A,,A,]3 [A,,A,] [A,,A,][A,,A,] | [D,A,]2 [D,A,]2 A,F, | %24
 z2 A,2 [E,G,D]2 |[M:2/4] [A,,A,]4 |] %26
V:3
 x6 | x6 | x6 | E4 z2 | x6 | x6 | x6 | x6 | x6 | x6 | x6 | x6 | x6 | x6 | x6 | E4 z2 |[M:2/4] x4 | %17
[M:1/4] x2 |[M:3/4] x6 | x6 | x6 | x6 | x6 | x6 | E4 z2 |[M:2/4] x4 |] %26
V:4
 x6 | x6 | x6 | E,4 z2 | x6 | x6 | x6 | x6 | x6 | x6 | x6 | x6 | x6 | x6 | x6 | E,4 z2 | %16
[M:2/4] x4 |[M:1/4] x2 |[M:3/4] x6 | x6 | x6 | x6 | x6 | x6 | E,4 z2 |[M:2/4] x4 |] %26

